svg/furkot/freepik/statue.svg

<svg viewBox="0 0 512 512" xmlns="http://www.w3.org/2000/svg"><path d="m380.766 510.491h-7.06v-19.995c1.24-.943 2.021-2.587 2.156-5.309 0 0-.728-10.886-5.955-17.219-5.309-6.333-27.163-29.885-29.319-40.798-2.048-10.914-1.671-46.431-12.261-67.503-10.51-21.127-21.774-31.987-24.199-45.326-2.506-13.393-6.009-38.723-10.941-57.29-4.931-18.675-6.683-23.606-7.68-32.714-1.104-9.162-.727-20.103-3.934-31.313-3.126-11.291-2.102-17.246-.674-25.304 1.429-8.111 3.854-37.295 3.854-37.295s17.246 19.699 27.082 24.253c9.809 4.581 15.441 7.06 17.974 4.931 2.452-2.129 4.958-9.485 3.449-17.542-1.401-8.139 2.156-9.54-9.809-24.253-11.964-14.794-23.228-27.109-26.058-34.142-2.802-7.061-15.117-16.519-15.117-16.519s-2.048-7.734-6.279-8.812c-4.231-1.051-8.812 1.078-8.812 1.078s-3.503-1.078-4.931 1.024c-1.375 2.102.673 7.41.673 7.41s-2.398 2.102-4.176 5.606-4.635 8.838-7.384 8.461c-2.802-.377-6.36-1.401-7.087-4.581-.701-3.153-.701-8.408-.701-8.408s7.087-4.581 8.138-8.138c1.024-3.503 3.504-12.315 3.504-17.246 0-4.904.35-8.057.35-8.057l3.18-5.282s4.581-2.102 3.503-5.632c-1.078-3.503-4.527-3.503-3.153-6.683 1.455-3.153 1.455-8.408-.674-9.863-2.129-1.374-7.383-3.476-7.06-5.605.35-2.075-7.788-3.503-9.485-1.401-1.752 2.129-4.581 3.53-8.435 1.401-3.826-2.075-10.213-1.401-12.315 1.428-2.102 2.803-3.18 3.153-5.309 3.153-2.101 0-4.581-.646-5.605 2.506-1.024 3.126-2.479 5.605-4.931 6.279-2.452.728-4.554.728-3.826 3.207.619 2.452-.351 9.836-2.48 10.536-2.155.647-2.452 2.453-1.751 4.554.673 2.075 2.102 3.504.673 5.579-1.374 2.155-2.101 3.179-.35 4.608 1.779 1.455 5.605 4.23 4.932 5.632-.728 1.401-3.504 2.829-2.102 4.904 1.374 2.129 5.659 3.934 4.23 6.71-1.455 2.802-.7 4.204 1.429 5.282 2.048 1.077 4.581 1.751 4.581 1.751s1.67 16.169-3.153 20.75c-4.985 4.581-15.845 10.536-21.855 12.638-5.982 2.129-17.246 9.162-19.644 17.597-2.506 8.461.35 24.252-1.806 31.258-2.102 7.034-4.203 20.076-4.554 29.238-.35 9.109-.727 18.244-1.751 23.525-1.105 5.282-2.129 15.118-.674 25.304 1.347 10.213 2.425 14.39 1.671 21.45-.674 7.033 4.581 14.767 5.605 20.777 1.078 5.982 3.907 7.733 7.788 10.213 3.853 2.452 3.853 8.057 12.961 10.859 9.162 2.83 14.067 2.83 14.067 2.83s.781-.35 1.671-.836c3.907 13.205 7.922 26.005 8.515 29.292 1.078 6.01 1.078 18.971 1.698 23.579.781 4.527-1.698 21.073 1.805 36.918 1.859 8.542 8.381 22.366 14.282 35.166-1.347.701-3.503 1.617-5.174.701-2.452-1.428-5.659-3.557-5.659-3.557s-2.802 2.803-3.449 7.761c-.781 4.904-6.063 8.407-6.063 8.407s12.369 5.632 14.12 13.366c1.725 7.734 0 15.118-1.428 20.399-.889 3.126-2.129 7.68-3.099 10.914h-4.581v33.388h-6.898v5.632h3.072l-1.995 21.073h173.568l-2.048-21.073h3.153zm-76.476-384.27c3.934 8.408 10.374 24.792 10.374 24.792s-12.368-14.794-14.389-23.983c-2.022-9.189-12.774-23.606-12.774-23.606s12.774 14.417 16.789 22.797zm-106.739 75.938c-1.024 7.384-2.479 21.423-4.527 28.106-1.805 5.605-1.132 16.95.189 28.78-.539-.808-1.078-1.509-1.617-2.021-4.959-4.581-16.6-6.683-16.869-14.067-.351-7.41 9.162-22.15 7.383-34.465s-1.455-15.818 1.779-26.031c3.099-10.186 5.605-26.382 5.605-26.382s11.641 13.366 12.611 21.828c1.051 8.461-3.53 16.869-4.554 24.252zm-18.782-85.234c-5.632 3.988-7.599 18.405-7.599 18.405s-1.213-11.615.781-17.597c1.967-6.009 7.572-7.222 15.603-10.402 7.976-3.233 21.18-12.827 21.18-12.827 0 6.037-24.306 18.432-29.965 22.421zm100.325 360.205c-.674-2.883-2.129-7.303-4.527-11.938-4.231-8.111-7.06-14.389-9.108-21.099-2.129-6.71 1.024-9.836-3.558-13.366-4.527-3.53-3.503-4.554-3.503-8.812 0-4.204 6.01-11.237 2.129-16.519-3.907-5.228-5.308-5.578-5.308-11.56s-.701-20.103-1.105-24.657c-.297-4.554-1.994-11.264.404-13.043 2.452-1.724 5.686-3.125 2.129-5.605-3.557-2.452-2.803-2.075-4.932-4.904-2.128-2.803-1.724-6.306-5.308-3.18-1.482 1.401-3.207 2.695-4.797 4.015.593-9.647.27-21.638-.135-29.318-.35-8.112-.997-21.477-.35-27.81.728-6.333.728-16.222.728-16.222s8.111 14.821 13.689 22.528c5.605 7.733 11.264 11.264 13.366 17.273 2.129 5.955 6.305 20.372 10.563 27.405 4.285 7.061 9.162 8.435 11.614 19.672 2.48 11.237 6.737 26.705 12.693 33.064 6.009 6.306 12.719 22.151 16.168 32.634 3.53 10.617 8.408 14.821 8.111 24.306-.35 9.486 1.428 16.169 5.632 18.27 4.069 2.048 8.543 4.447 10.671 8.812h-65.212v.054z"/></svg>

<svg xmlns="http://www.w3.org/2000/svg" viewBox="0 0 512 512"><path d="M380.766 510.491H373.706V490.496C374.946 489.553 375.727 487.909 375.862 485.187 375.862 485.187 375.134 474.301 369.907 467.968 364.598 461.635 342.744 438.083 340.588 427.17 338.54 416.256 338.917 380.739 328.327 359.667 317.817 338.54 306.553 327.68 304.128 314.341 301.622 300.948 298.119 275.618 293.187 257.051 288.256 238.376 286.504 233.445 285.507 224.337 284.403 215.175 284.78 204.234 281.573 193.024 278.447 181.733 279.471 175.778 280.899 167.72 282.328 159.609 284.753 130.425 284.753 130.425S301.999 150.124 311.835 154.678C321.644 159.259 327.276 161.738 329.809 159.609 332.261 157.48 334.767 150.124 333.258 142.067 331.857 133.928 335.414 132.527 323.449 117.814 311.485 103.02 300.221 90.705 297.391 83.672 294.589 76.611 282.274 67.153 282.274 67.153S280.226 59.419 275.995 58.341C271.764 57.29 267.183 59.419 267.183 59.419S263.68 58.341 262.252 60.443C260.877 62.545 262.925 67.853 262.925 67.853S260.527 69.955 258.749 73.459 254.114 82.297 251.365 81.92C248.563 81.543 245.005 80.519 244.278 77.339 243.577 74.186 243.577 68.931 243.577 68.931S250.664 64.35 251.715 60.793C252.739 57.29 255.219 48.478 255.219 43.547 255.219 38.643 255.569 35.49 255.569 35.49L258.749 30.208C258.749 30.208 263.33 28.106 262.252 24.576 261.174 21.073 257.725 21.073 259.099 17.893 260.554 14.74 260.554 9.485 258.425 8.03 256.296 6.656 251.042 4.554 251.365 2.425 251.715 0.35 243.577-1.078 241.88 1.024 240.128 3.153 237.299 4.554 233.445 2.425 229.619 0.35 223.232 1.024 221.13 3.853 219.028 6.656 217.95 7.006 215.821 7.006 213.72 7.006 211.24 6.36 210.216 9.512 209.192 12.638 207.737 15.117 205.285 15.791 202.833 16.519 200.731 16.519 201.459 18.998 202.078 21.45 201.108 28.834 198.979 29.534 196.824 30.181 196.527 31.987 197.228 34.088 197.901 36.163 199.33 37.592 197.901 39.667 196.527 41.822 195.8 42.846 197.551 44.275 199.33 45.73 203.156 48.505 202.483 49.907 201.755 51.308 198.979 52.736 200.381 54.811 201.755 56.94 206.04 58.745 204.611 61.521 203.156 64.323 203.911 65.725 206.04 66.803 208.088 67.88 210.621 68.554 210.621 68.554S212.291 84.723 207.468 89.304C202.483 93.885 191.623 99.84 185.613 101.942 179.631 104.071 168.367 111.104 165.969 119.539 163.463 128 166.319 143.791 164.163 150.797 162.061 157.831 159.96 170.873 159.609 180.035 159.259 189.144 158.882 198.279 157.858 203.56 156.753 208.842 155.729 218.678 157.184 228.864 158.531 239.077 159.609 243.254 158.855 250.314 158.181 257.347 163.436 265.081 164.46 271.091 165.538 277.073 168.367 278.824 172.248 281.304 176.101 283.756 176.101 289.361 185.209 292.163 194.371 294.993 199.276 294.993 199.276 294.993S200.057 294.643 200.947 294.157C204.854 307.362 208.869 320.162 209.462 323.449 210.54 329.459 210.54 342.42 211.16 347.028 211.941 351.555 209.462 368.101 212.965 383.946 214.824 392.488 221.346 406.312 227.247 419.112 225.9 419.813 223.744 420.729 222.073 419.813 219.621 418.385 216.414 416.256 216.414 416.256S213.612 419.059 212.965 424.017C212.184 428.921 206.902 432.424 206.902 432.424S219.271 438.056 221.022 445.79C222.747 453.524 221.022 460.908 219.594 466.189 218.705 469.315 217.465 473.869 216.495 477.103H211.914V510.491H205.016V516.123H208.088L206.093 537.196H379.661L377.613 516.123H380.766C380.766 516.123 380.766 510.491 380.766 510.491ZM304.29 126.221C308.224 134.629 314.664 151.013 314.664 151.013S302.296 136.219 300.275 127.03C298.253 117.841 287.501 103.424 287.501 103.424S300.275 117.841 304.29 126.221ZM197.551 202.159C196.527 209.543 195.072 223.582 193.024 230.265 191.219 235.87 191.892 247.215 193.213 259.045 192.674 258.237 192.135 257.536 191.596 257.024 186.637 252.443 174.996 250.341 174.727 242.957 174.376 235.547 183.889 220.807 182.11 208.492S180.655 192.674 183.889 182.461C186.988 172.275 189.494 156.079 189.494 156.079S201.135 169.445 202.105 177.907C203.156 186.368 198.575 194.776 197.551 202.159ZM178.769 116.925C173.137 120.913 171.17 135.33 171.17 135.33S169.957 123.715 171.951 117.733C173.918 111.724 179.523 110.511 187.554 107.331 195.53 104.098 208.734 94.504 208.734 94.504 208.734 100.541 184.428 112.936 178.769 116.925ZM279.094 477.13C278.42 474.247 276.965 469.827 274.567 465.192 270.336 457.081 267.507 450.803 265.459 444.093 263.33 437.383 266.483 434.257 261.901 430.727 257.374 427.197 258.398 426.173 258.398 421.915 258.398 417.711 264.408 410.678 260.527 405.396 256.62 400.168 255.219 399.818 255.219 393.836S254.518 373.733 254.114 369.179C253.817 364.625 252.12 357.915 254.518 356.136 256.97 354.412 260.204 353.011 256.647 350.531 253.09 348.079 253.844 348.456 251.715 345.627 249.587 342.824 249.991 339.321 246.407 342.447 244.925 343.848 243.2 345.142 241.61 346.462 242.203 336.815 241.88 324.824 241.475 317.144 241.125 309.032 240.478 295.667 241.125 289.334 241.853 283.001 241.853 273.112 241.853 273.112S249.964 287.933 255.542 295.64C261.147 303.373 266.806 306.904 268.908 312.913 271.037 318.868 275.213 333.285 279.471 340.318 283.756 347.379 288.633 348.753 291.085 359.99 293.565 371.227 297.822 386.695 303.778 393.054 309.787 399.36 316.497 415.205 319.946 425.688 323.476 436.305 328.354 440.509 328.057 449.994 327.707 459.48 329.485 466.163 333.689 468.264 337.758 470.312 342.232 472.711 344.36 477.076H279.148V477.13H279.094Z"/></svg>
